dist/img/skills/software/photoshop.svg

<svg width="128" height="128" viewBox="0 0 128 128" fill="none" xmlns="http://www.w3.org/2000/svg">
<g opacity="0.32">
<path d="M15.3602 10.24C12.562 10.24 10.2402 12.5617 10.2402 15.36V112.64C10.2402 115.438 12.562 117.76 15.3602 117.76H112.64C115.438 117.76 117.76 115.438 117.76 112.64V15.36C117.76 12.5617 115.438 10.24 112.64 10.24H15.3602ZM15.3602 15.36H112.64V112.64H15.3602V15.36ZM47.5802 35.84C43.8938 35.84 40.9448 36.2496 38.4052 36.905L38.4002 92.16H44.7102V68.685C45.6114 68.7644 46.4303 68.765 47.4952 68.765C52.4104 68.765 57.5711 66.721 60.5202 62.625C62.6527 59.8397 63.8752 56.399 63.8752 51.32C63.8752 46.4893 62.4841 42.4714 59.8652 39.85C56.998 37.0647 52.6567 35.84 47.5802 35.84ZM48.5802 40.04C55.6228 40.04 57.9152 45.1125 57.9152 50.765C57.9152 58.5474 53.7367 62.645 47.5952 62.645C46.5303 62.645 45.7925 62.5644 45.0552 62.485V40.45C45.8744 40.2017 47.1057 40.04 48.5802 40.04ZM81.1952 51.2C74.8183 51.2 69.8902 55.7277 69.8902 62.225C69.8902 66.7485 72.7747 70.2035 78.1302 73.575C82.2928 76.2067 83.3952 78.3462 83.3952 81.39C83.3952 84.9254 81.0209 87.145 77.3652 87.145C74.7284 87.145 72.1791 85.9937 70.7352 85.09L69.1202 89.855C70.9046 91.2528 74.2205 92.16 77.1952 92.16C83.9946 92.16 89.6002 88.2945 89.6002 80.315C89.6002 74.8059 85.8642 71.1019 81.1102 68.14C77.0296 65.5109 76.0102 63.9467 76.0102 61.315C76.0102 58.6859 77.7911 56.22 81.2752 56.22C83.4845 56.22 85.1874 56.9599 86.8002 58.03L88.5002 53.255C86.8004 52.1875 84.426 51.2 81.1952 51.2Z" fill="#F8F8FF"/>
</g>
</svg>

<svg width="128" height="128" fill="none" xmlns="http://www.w3.org/2000/svg"><path d="M15.36 10.24c-2.798 0-5.12 2.322-5.12 5.12v97.28c0 2.798 2.322 5.12 5.12 5.12h97.28c2.798 0 5.12-2.322 5.12-5.12V15.36c0-2.798-2.322-5.12-5.12-5.12H15.36zm0 5.12h97.28v97.28H15.36V15.36zm32.22 20.48c-3.686 0-6.635.41-9.175 1.065L38.4 92.16h6.31V68.685c.901.08 1.72.08 2.785.08 4.915 0 10.076-2.044 13.025-6.14 2.133-2.785 3.355-6.226 3.355-11.305 0-4.83-1.39-8.849-4.01-11.47-2.867-2.785-7.208-4.01-12.285-4.01zm1 4.2c7.043 0 9.335 5.072 9.335 10.725 0 7.782-4.178 11.88-10.32 11.88-1.065 0-1.803-.08-2.54-.16V40.45c.82-.248 2.05-.41 3.525-.41zM81.195 51.2c-6.377 0-11.305 4.528-11.305 11.025 0 4.524 2.885 7.979 8.24 11.35 4.163 2.632 5.265 4.771 5.265 7.815 0 3.535-2.374 5.755-6.03 5.755-2.637 0-5.186-1.151-6.63-2.055l-1.615 4.765c1.785 1.398 5.1 2.305 8.075 2.305 6.8 0 12.405-3.865 12.405-11.845 0-5.51-3.736-9.213-8.49-12.175-4.08-2.63-5.1-4.193-5.1-6.825 0-2.63 1.781-5.095 5.265-5.095 2.21 0 3.912.74 5.525 1.81l1.7-4.775c-1.7-1.068-4.074-2.055-7.305-2.055z" fill="#F8F8FF" opacity=".32"/></svg>
